assets/images/avatars/user/custom-avatars/season-f1/champagne-green400.svg

<svg width="52" height="52" viewBox="0 0 52 52" fill="none" xmlns="http://www.w3.org/2000/svg">
<g clip-path="url(#clip0_26_81621)">
<rect width="52" height="52" fill="#008C59"/>
<path d="M26 52C40.3594 52 52 40.3594 52 26C52 11.6406 40.3594 0 26 0C11.6406 0 0 11.6406 0 26C0 40.3594 11.6406 52 26 52Z" fill="#008C59"/>
<path d="M25.9999 46.7669C37.4691 46.7669 46.7667 37.4693 46.7667 26.0002C46.7667 14.531 37.4691 5.2334 25.9999 5.2334C14.5308 5.2334 5.23315 14.531 5.23315 26.0002C5.23315 37.4693 14.5308 46.7669 25.9999 46.7669Z" fill="#008C59" stroke="#002140" stroke-width="0.65" stroke-miterlimit="10"/>
<path d="M7.39298 33.0715C7.39298 33.0715 4.96326 35.6431 11.3214 42.0012C14.9659 45.6458 17.9217 46.2619 19.1781 45.002C20.4345 43.7422 29.1808 34.9994 29.1808 34.9994C29.1808 34.9994 34.1821 27.2845 34.5386 25.3532C34.8951 23.4219 35.705 22.7089 35.705 22.7089C35.705 22.7089 37.8198 18.4067 38.7543 17.1365C39.6888 15.8662 40.8275 14.9214 40.8275 14.9214C40.8275 14.9214 43.4233 15.5651 43.9944 15.0875C44.5655 14.6099 45.185 12.945 42.2812 10.2281C39.3773 7.51454 38.2801 8.32445 37.9478 8.65672C37.1864 9.51508 38.0897 11.5606 37.8059 11.8479C37.8059 11.8479 35.3277 14.8971 31.8528 16.0878C29.1289 17.0846 22.7569 18.8013 17.8041 22.7089C12.2351 27.8037 7.39644 33.068 7.39644 33.068L7.39298 33.0715Z" fill="#03D47C" stroke="#002140" stroke-width="0.65" stroke-miterlimit="10"/>
<path d="M9.08203 31.6177C9.08203 31.6177 9.84347 34.9508 14.2737 39.1906C18.704 43.4305 20.3688 43.7628 20.3688 43.7628L27.9417 36.2868C27.9417 36.2868 24.5117 33.9055 22.2274 31.5243C19.9396 29.143 19.7977 28.1427 19.7977 28.1427C19.7977 28.1427 22.4662 24.5224 20.656 22.5219C20.656 22.5219 19.988 21.2828 19.2266 21.6635C19.2266 21.6635 14.7756 25.1281 13.7511 26.5679C12.0413 28.565 9.08203 31.6177 9.08203 31.6177Z" fill="#002E22" stroke="#002140" stroke-width="0.65" stroke-miterlimit="10"/>
<path d="M28.9455 17.1885C28.9455 17.1885 27.613 18.9018 28.3744 19.6667C29.1359 20.4281 30.323 20.0889 30.8526 19.6667C30.8526 19.6667 29.8523 21.5253 30.7107 22.2868C31.569 23.0482 33.3307 21.8576 33.3307 21.8576C33.3307 21.8576 32.6628 24.0485 33.2338 24.6195C33.8049 25.1906 34.9471 24.3323 34.9471 24.3323C34.9471 24.3323 36.8057 20.2828 37.3284 19.2825C37.851 18.2822 39.6612 16.0913 39.6612 16.0913C39.6612 16.0913 39.3739 15.3299 38.8513 15.5687C38.8513 15.5687 38.9482 14.7103 38.564 14.3296C38.1833 13.9489 37.3734 14.0908 37.3734 14.0908L36.7538 12.9971C36.7538 12.9971 33.1819 15.7106 31.4202 16.2367C29.6585 16.7593 28.942 17.1885 28.942 17.1885H28.9455Z" fill="#B1F2D6" stroke="#002140" stroke-width="0.65" stroke-miterlimit="10"/>
<path d="M12.7993 27.7135C12.7993 27.7135 12.7993 28.5719 13.3704 28.9526C13.9415 29.3333 15.5128 29.3818 16.8004 28.0942C18.0879 26.8067 18.8494 25.1904 18.3233 24.3804C17.8006 23.5705 17.1811 23.2383 17.1811 23.2383L12.7993 27.7135Z" fill="#B1F2D6" stroke="#002140" stroke-width="0.65" stroke-miterlimit="10"/>
<path d="M36.7539 12.9967L37.3735 14.0904C37.3735 14.0904 38.3391 13.9831 38.5641 14.3292C38.7891 14.6753 38.8513 15.5683 38.8513 15.5683L39.7547 15.8556L40.8277 14.928C40.8277 14.928 40.6477 13.7477 39.9347 13.0347C39.2217 12.3217 37.8026 11.8545 37.8026 11.8545L36.7539 12.9967Z" fill="#008C59" stroke="#002140" stroke-width="0.65" stroke-miterlimit="10"/>
<path d="M8.79826 31.5244L7.32036 33.0023C7.32036 33.0023 5.22638 35.6708 10.0823 40.8141C14.9418 45.9573 17.7037 46.1477 18.8459 45.2893C19.9881 44.431 20.3688 43.7664 20.3688 43.7664C20.3688 43.7664 17.3196 42.4339 13.5573 38.5747C9.79507 34.7156 8.7948 31.5244 8.7948 31.5244H8.79826Z" fill="#03D47C" stroke="#002140" stroke-width="0.65" stroke-miterlimit="10"/>
</g>
<defs>
<clipPath id="clip0_26_81621">
<rect width="52" height="52" fill="white"/>
</clipPath>
</defs>
</svg>

<svg xmlns="http://www.w3.org/2000/svg" width="52" height="52" fill="none" viewBox="0 0 52 52"><g clip-path="url(#a)"><path fill="#008c59" d="M0 0h52v52H0z"/><path fill="#008c59" d="M26 52c14.36 0 26-11.64 26-26S40.36 0 26 0 0 11.64 0 26s11.64 26 26 26"/><path fill="#008c59" stroke="#002140" stroke-miterlimit="10" stroke-width=".65" d="M26 46.767c11.47 0 20.767-9.298 20.767-20.767S37.469 5.233 26 5.233C14.53 5.233 5.233 14.531 5.233 26c0 11.47 9.298 20.767 20.767 20.767Z"/><path fill="#03d47c" stroke="#002140" stroke-miterlimit="10" stroke-width=".65" d="M7.393 33.072s-2.43 2.571 3.928 8.93c3.645 3.644 6.6 4.26 7.857 3 1.256-1.26 10.003-10.003 10.003-10.003s5.001-7.715 5.358-9.646 1.166-2.644 1.166-2.644 2.115-4.302 3.05-5.572a14 14 0 0 1 2.072-2.216s2.596.644 3.167.167c.572-.478 1.191-2.143-1.713-4.86-2.904-2.713-4-1.904-4.333-1.571-.762.858.142 2.904-.142 3.19 0 0-2.478 3.05-5.953 4.24-2.724.998-9.096 2.714-14.049 6.622-5.569 5.095-10.408 10.359-10.408 10.359z"/><path fill="#002e22" stroke="#002140" stroke-miterlimit="10" stroke-width=".65" d="M9.082 31.618s.761 3.333 5.192 7.573c4.43 4.24 6.095 4.572 6.095 4.572l7.573-7.476s-3.43-2.381-5.715-4.763c-2.287-2.381-2.43-3.381-2.43-3.381s2.67-3.62.859-5.621c0 0-.668-1.24-1.43-.858 0 0-4.45 3.464-5.475 4.904-1.71 1.997-4.669 5.05-4.669 5.05Z"/><path fill="#b1f2d6" stroke="#002140" stroke-miterlimit="10" stroke-width=".65" d="M28.946 17.189s-1.333 1.713-.572 2.478c.762.761 1.949.422 2.479 0 0 0-1 1.858-.142 2.62.858.761 2.62-.43 2.62-.43s-.668 2.192-.097 2.762c.57.572 1.713-.287 1.713-.287s1.859-4.05 2.381-5.05c.523-1 2.333-3.19 2.333-3.19s-.287-.762-.81-.523c0 0 .097-.859-.287-1.24-.38-.38-1.19-.238-1.19-.238l-.62-1.094s-3.572 2.714-5.334 3.24c-1.762.522-2.478.952-2.478.952zM12.8 27.714s0 .858.57 1.239c.572.38 2.143.429 3.43-.859 1.288-1.287 2.05-2.904 1.523-3.714-.522-.81-1.142-1.142-1.142-1.142z"/><path fill="#008c59" stroke="#002140" stroke-miterlimit="10" stroke-width=".65" d="m36.754 12.997.62 1.093s.965-.107 1.19.24c.225.345.287 1.238.287 1.238l.904.288 1.073-.928s-.18-1.18-.893-1.893-2.132-1.18-2.132-1.18z"/><path fill="#03d47c" stroke="#002140" stroke-miterlimit="10" stroke-width=".65" d="M8.798 31.524 7.32 33.002s-2.094 2.669 2.762 7.812c4.86 5.143 7.622 5.334 8.764 4.475 1.142-.858 1.523-1.523 1.523-1.523s-3.05-1.332-6.812-5.191-4.762-7.05-4.762-7.05z"/></g><defs><clipPath id="a"><path fill="#fff" d="M0 0h52v52H0z"/></clipPath></defs></svg>
